X:1
T: Madame Casey
C:
R:Jig
Q:180
K:Em
M:6/8
L:1/16
|:A2|G4E2 E2F2E2|D4D2 D2E2D2|G4E2 E2F2E2|c6B4A2|
G4E2 E2F2E2|D4D2 D2E2D2|G4E2 E2F2E2|G6B4:|
A2|:G4A2 B4c2|d4e2 d4B2|G4A2 B4c2|d6c4d2|
|1e4c2 d4B2|c4A2 B4G2|G4E2 E2F2E2|c6B4A2:|
|2e2d2c2 d2c2B2|c2B2A2 B2A2B2|G4E2 E2F2E2|G6E4||
